src/components/sprite-info/icon--y.svg

<svg id="Layer_1" data-name="Layer 1" xmlns="http://www.w3.org/2000/svg" viewBox="0 0 16 16"><defs><style>.cls-1{fill:none;stroke:#575e75;stroke-linecap:round;stroke-linejoin:round}.cls-2{fill:#575e75}</style></defs><title>icon--y</title><path class="cls-1" d="M8 13V3M6.23 4.77L8 3l1.77 1.77M9.77 11.23L8 13l-1.77-1.77"/><path class="cls-2" d="M13.5 8a.49.49 0 0 1 .5-.5.5.5 0 0 1 .5.5.5.5 0 0 1-.5.5.5.5 0 0 1-.5-.5zm-2 0a.49.49 0 0 1 .5-.5.5.5 0 0 1 .5.5.5.5 0 0 1-.5.5.5.5 0 0 1-.5-.5zm-2 0a.49.49 0 0 1 .5-.5.5.5 0 0 1 .5.5.5.5 0 0 1-.5.5.5.5 0 0 1-.5-.5zm-2 0a.49.49 0 0 1 .5-.5.5.5 0 0 1 .5.5.5.5 0 0 1-.5.5.5.5 0 0 1-.5-.5zm-2 0a.49.49 0 0 1 .5-.5.5.5 0 0 1 .5.5.5.5 0 0 1-.5.5.5.5 0 0 1-.5-.5zm-2 0a.49.49 0 0 1 .5-.5.5.5 0 0 1 .5.5.5.5 0 0 1-.5.5.5.5 0 0 1-.5-.5zm-2 0a.49.49 0 0 1 .5-.5.5.5 0 0 1 .5.5.5.5 0 0 1-.5.5.5.5 0 0 1-.5-.5z"/></svg>

<svg id="Layer_1" data-name="Layer 1" xmlns="http://www.w3.org/2000/svg" viewBox="0 0 16 16"><defs><style>.cls-1{fill:none;stroke:#575e75;stroke-linecap:round;stroke-linejoin:round;}.cls-2{fill:#575e75;}</style></defs><title>icon--y</title><line class="cls-1" x1="8" y1="13" x2="8" y2="3"/><polyline class="cls-1" points="6.23 4.77 8 3 9.77 4.77"/><polyline class="cls-1" points="9.77 11.23 8 13 6.23 11.23"/><path class="cls-2" d="M13.5,8a.49.49,0,0,1,.5-.5h0a.5.5,0,0,1,.5.5h0a.5.5,0,0,1-.5.5h0A.5.5,0,0,1,13.5,8Zm-2,0a.49.49,0,0,1,.5-.5h0a.5.5,0,0,1,.5.5h0a.5.5,0,0,1-.5.5h0A.5.5,0,0,1,11.5,8Zm-2,0a.49.49,0,0,1,.5-.5h0a.5.5,0,0,1,.5.5h0a.5.5,0,0,1-.5.5h0A.5.5,0,0,1,9.5,8Zm-2,0A.49.49,0,0,1,8,7.5H8a.5.5,0,0,1,.5.5h0a.5.5,0,0,1-.5.5H8A.5.5,0,0,1,7.5,8Zm-2,0A.49.49,0,0,1,6,7.5H6a.5.5,0,0,1,.5.5h0a.5.5,0,0,1-.5.5H6A.5.5,0,0,1,5.5,8Zm-2,0A.49.49,0,0,1,4,7.5H4a.5.5,0,0,1,.5.5h0a.5.5,0,0,1-.5.5H4A.5.5,0,0,1,3.5,8Zm-2,0A.49.49,0,0,1,2,7.5H2a.5.5,0,0,1,.5.5h0a.5.5,0,0,1-.5.5H2A.5.5,0,0,1,1.5,8Z"/></svg>
